X:1
T: Erin's Hope
C:
R:Reel
Q: 232
K:G
M:4/4
L:1/8
dc|((3BcB) AG ((3Bcd) AG|FA DA FA Dc|((3BcB) AG Bd AG|FD EF GB dc|
((3BcB) AG ((3Bcd) AG|FA DA FA Dc|((3BcB) AG ((3gfe) dc|Bd AF G2 f2|
|:g2 gd BG Bd|gf eg fg af|g2 gd ((3Bcd) AG|FA DA FA DF|
g2 gd BG Bd|gf eg fg af|((3gab) af ge dc|Bd AG FA dc:|
((3BcB) AG ((3Bcd) AG|FA DA FA Dc|((3BcB) AG Bd AG|FD EF GB dc|
((3BcB) AG ((3Bcd) AG|FA DA FA Dc|((3BcB) AG ((3gfe) dc|Bd AF G2||
